packages/icons/src/azure-arm-rollback.svg

<svg fill="none" height="25" viewBox="0 0 28 25" width="28" xmlns="http://www.w3.org/2000/svg" xmlns:xlink="http://www.w3.org/1999/xlink"><clipPath id="a"><path d="m14.0625 11.7188h13.2812v13.2812h-13.2812z"/></clipPath><g clip-rule="evenodd" fill="#0278d5" fill-rule="evenodd"><path d="m11.2151 3.25777c.1513.15378.1493.4011-.0045.55241l-1.71942 1.69181h11.12632c.6472 0 1.1718.52467 1.1718 1.17187v4.19874c0 .2158-.1749.3907-.3906.3907s-.3906-.1749-.3906-.3907v-4.19874c0-.21573-.1749-.39062-.3906-.39062h-11.12632l1.71942 1.6918c.1538.15131.1558.39863.0045.55241s-.3986.15579-.5524.00448l-2.39945-2.36087c-.07463-.07343-.11666-.17375-.11666-.27845 0-.10469.04203-.20501.11666-.27844l2.39945-2.36087c.1538-.15131.4011-.14931.5524.00447zm-7.64479 6.93913c.21574 0 .39063.1749.39063.3906v9.3435c0 .2157.17489.3906.39062.3906h7.85614c.2158 0 .3907.1749.3907.3906 0 .2158-.1749.3907-.3907.3907h-7.85614c-.64721 0-1.17187-.5247-1.17187-1.1719v-9.3435c0-.2157.17489-.3906.39062-.3906z"/><g clip-path="url(#a)"><path d="m17.5316 14.4327c.2382-.1397.318-.4461.1782-.6843-.1397-.2382-.4461-.318-.6842-.1782l-1.932 1.1334c-.306.1795-.494.5077-.494.8625v2.7944 2.7942c0 .355.1883.6835.4947.8629l1.9316 1.1311c.2383.1396.5446.0595.6841-.1788.1396-.2383.0595-.5446-.1788-.6841l-1.9316-1.1311v-2.7942-2.7944zm6.3421 0c-.2382-.1397-.318-.4461-.1783-.6843.1398-.2382.4461-.318.6843-.1782l1.932 1.1334c.306.1795.494.5077.494.8625v2.7944 2.7942c0 .355-.1883.6835-.4947.8629l-1.9316 1.1311c-.2383.1396-.5446.0595-.6842-.1788-.1395-.2383-.0594-.5446.1788-.6841l1.9317-1.1311v-2.7942-2.7944z"/><path d="m20.5406 13.8656c.1572-.0924.3523-.0919.5091.0013l3.0975 1.8429c.152.0904.2449.2543.2444.431-.0005.1768-.0942.3402-.2466.4298l-3.1295 1.8395c-.157.0923-.3518.0919-.5084-.001l-3.1019-1.8395c-.1522-.0902-.2453-.2541-.245-.431s.0941-.3404.2466-.4301zm-1.8971 2.2757 2.1197 1.2571 2.1461-1.2615-2.1168-1.2594zm-1.9706.4224c.1531-.0898.3422-.0917.4971-.005l3.2872 1.8396c.158.0884.2558.2553.2558.4363v3.5875c0 .177-.0936.3409-.2461.4308-.1526.0898-.3413.0924-.4962.0066l-3.2872-1.8208c-.159-.0881-.2577-.2556-.2577-.4374v-1.8031-1.8032c0-.1774.094-.3416.2471-.4313zm.7529 1.2841v.9504 1.5085l2.2872 1.2669v-2.4459zm7.5536-.8528c0-.1793-.096-.3449-.2517-.434-.1556-.089-.3471-.0879-.5017.003l-3.1294 1.8395c-.1528.0899-.2466.2538-.2466.4311v3.5875c0 .1789.0956.3442.2507.4334s.346.0887.5007-.0012l3.1295-1.8208c.1539-.0896.2485-.2542.2485-.4322zm-3.1294 4.5577v-2.432l2.1294-1.2518v2.4448z"/></g></g></svg>

<svg width="28" height="25" viewBox="0 0 28 25" fill="none" xmlns="http://www.w3.org/2000/svg">
<path fill-rule="evenodd" clip-rule="evenodd" d="M11.2151 3.25777C11.3664 3.41155 11.3644 3.65887 11.2106 3.81018L9.49118 5.50199H20.6175C21.2647 5.50199 21.7893 6.02666 21.7893 6.67386V10.8726C21.7893 11.0884 21.6144 11.2633 21.3987 11.2633C21.183 11.2633 21.0081 11.0884 21.0081 10.8726V6.67386C21.0081 6.45813 20.8332 6.28324 20.6175 6.28324H9.49118L11.2106 7.97504C11.3644 8.12635 11.3664 8.37367 11.2151 8.52745C11.0638 8.68123 10.8165 8.68324 10.6627 8.53193L8.26325 6.17106C8.18862 6.09763 8.14659 5.99731 8.14659 5.89261C8.14659 5.78792 8.18862 5.6876 8.26325 5.61417L10.6627 3.2533C10.8165 3.10199 11.0638 3.10399 11.2151 3.25777ZM3.57031 10.1969C3.78605 10.1969 3.96094 10.3718 3.96094 10.5875V19.931C3.96094 20.1467 4.13583 20.3216 4.35156 20.3216H12.2077C12.4235 20.3216 12.5984 20.4965 12.5984 20.7122C12.5984 20.928 12.4235 21.1029 12.2077 21.1029H4.35156C3.70435 21.1029 3.17969 20.5782 3.17969 19.931V10.5875C3.17969 10.3718 3.35458 10.1969 3.57031 10.1969Z" fill="#0278D5"/>
<g clip-path="url(#clip0_179_57615)">
<path fill-rule="evenodd" clip-rule="evenodd" d="M17.5316 14.4327C17.7698 14.293 17.8496 13.9866 17.7098 13.7484C17.5701 13.5102 17.2637 13.4304 17.0256 13.5702L15.0936 14.7036C14.7876 14.8831 14.5996 15.2113 14.5996 15.5661V18.3605V21.1547C14.5996 21.5097 14.7879 21.8382 15.0943 22.0176L17.0259 23.1487C17.2642 23.2883 17.5705 23.2082 17.71 22.9699C17.8496 22.7316 17.7695 22.4253 17.5312 22.2858L15.5996 21.1547V18.3605V15.5661L17.5316 14.4327ZM23.8737 14.4327C23.6355 14.293 23.5557 13.9866 23.6954 13.7484C23.8352 13.5102 24.1415 13.4304 24.3797 13.5702L26.3117 14.7036C26.6177 14.8831 26.8057 15.2113 26.8057 15.5661V18.3605V21.1547C26.8057 21.5097 26.6174 21.8382 26.311 22.0176L24.3794 23.1487C24.1411 23.2883 23.8348 23.2082 23.6952 22.9699C23.5557 22.7316 23.6358 22.4253 23.874 22.2858L25.8057 21.1547V18.3605V15.5661L23.8737 14.4327Z" fill="#0278D5"/>
<path fill-rule="evenodd" clip-rule="evenodd" d="M20.5406 13.8656C20.6978 13.7732 20.8929 13.7737 21.0497 13.8669L24.1472 15.7098C24.2992 15.8002 24.3921 15.9641 24.3916 16.1408C24.3911 16.3176 24.2974 16.481 24.145 16.5706L21.0155 18.4101C20.8585 18.5024 20.6637 18.502 20.5071 18.4091L17.4052 16.5696C17.253 16.4794 17.1599 16.3155 17.1602 16.1386C17.1605 15.9617 17.2543 15.7982 17.4068 15.7085L20.5406 13.8656ZM18.6435 16.1413L20.7632 17.3984L22.9093 16.1369L20.7925 14.8775L18.6435 16.1413ZM16.6729 16.5637C16.826 16.4739 17.0151 16.472 17.17 16.5587L20.4572 18.3983C20.6152 18.4867 20.713 18.6536 20.713 18.8346V22.4221C20.713 22.5991 20.6194 22.763 20.4669 22.8529C20.3143 22.9427 20.1256 22.9453 19.9707 22.8595L16.6835 21.0387C16.5245 20.9506 16.4258 20.7831 16.4258 20.6013V18.7982V16.995C16.4258 16.8176 16.5198 16.6534 16.6729 16.5637ZM17.4258 17.8478V18.7982V20.3067L19.713 21.5736V19.1277L17.4258 17.8478ZM24.9794 16.995C24.9794 16.8157 24.8834 16.6501 24.7277 16.561C24.5721 16.472 24.3806 16.4731 24.226 16.564L21.0966 18.4035C20.9438 18.4934 20.85 18.6573 20.85 18.8346V22.4221C20.85 22.601 20.9456 22.7663 21.1007 22.8555C21.2558 22.9447 21.4467 22.9442 21.6014 22.8543L24.7309 21.0335C24.8848 20.9439 24.9794 20.7793 24.9794 20.6013V16.995ZM21.85 21.5527V19.1207L23.9794 17.8689V20.3137L21.85 21.5527Z" fill="#0278D5"/>
</g>
<defs>
<clipPath id="clip0_179_57615">
<rect width="13.2812" height="13.2812" fill="white" transform="translate(14.0625 11.7188)"/>
</clipPath>
</defs>
</svg>
